!!!!SEGMENT: pl-wnifc--6730-n--002_sowinski-wojciech--chants-religieux-de-la-pologne-op-93-chant-a-marie-mere-du-sauveur.krn
!!!cenid: 18xx:4016
!!!COM: Sowiński, Wojciech
!!!COM-rismID: pe30008543
!!!CDT: ~1803-1880/03/05
!!!CNT:
!!!OTL: Chants religieux de la Pologne op. 93
!!!PDT: 1830
!!!AGN:
!!!SMS-siglum: PL-Wnifc
!!!SMS-shelfmark: 6730/n
!!!SMS-shelfwork: 002 W
!!!SMS-variant:
!!!SMS-altvar:
!!!NIFC-rismSourceID: 1001138224
!!!NIFC-islandoraID: nifc:213350
!!!URL-pdf-islandora: https://repozytorium.nifc.pl/islandora/object/nifc%3A213350/datastream/PDF/view
!!!URL-scan: https://polish.musicsources.pl/pl/lokalizacje/galeria/druki-muzyczne/16913 @EN{Scan on Polish Music Sources Website} @PL{Skany w portalu Dziedzictwo Muzyki Polskiej w otwartym dostępie}
!!!ONB-nifc: UWAGA: str. 4-7
!!!AIN: 1 calto 1 organ 1 piano 2 soprn
!!!key: F
**kern	**kern	**dynam	**kern	**text	**dynam	**kern	**text	**dynam	**kern	**text	**dynam
*part5	*part4	*part4	*part3	*part3	*part3	*part2	*part2	*part2	*part1	*part1	*part1
*staff5	*staff4	*	*staff3	*staff3	*	*staff2	*staff2	*	*staff1	*staff1	*
*I"Piano	*I"ORGUE.	*	*I"CONTRALTO.	*	*	*I"2o. DESSUS.	*	*	*I"1er. DESSUS.	*	*
*	*I'org	*	*I'CA	*	*	*I'2 D	*	*	*I'1 D	*	*
*Ipiano	*Iorgan	*	*Icalto	*	*	*Isoprn	*	*	*Isoprn	*	*
*ICklav	*ICklav	*	*ICvox	*	*	*ICvox	*	*	*ICvox	*	*
*clefF4	*clefG2	*	*clefG2	*	*	*clefG2	*	*	*clefG2	*	*
*k[b-]	*k[b-]	*	*k[b-]	*	*	*k[b-]	*	*	*k[b-]	*	*
*F:	*F:	*	*F:	*	*	*F:	*	*	*F:	*	*
*M4/4	*M4/4	*	*M4/4	*	*	*M4/4	*	*	*M4/4	*	*
*met(c)	*met(c)	*	*met(c)	*	*	*met(c)	*	*	*met(c)	*	*
=1	=1	=1	=1	=1	=1	=1	=1	=1	=1	=1	=1
!	!LO:TX:a:t=Allegro moderato.	!	!	!	!	!	!	!	!LO:TX:a:t=Allo. moderato.	!	!
1r	4f/	p	1r	.	.	1r	.	.	1r	.	.
.	4f/	.	.	.	.	.	.	.	.	.	.
.	4a/	.	.	.	.	.	.	.	.	.	.
.	4b-\	.	.	.	.	.	.	.	.	.	.
=2	=2	=2	=2	=2	=2	=2	=2	=2	=2	=2	=2
*	*^	*	*	*	*	*	*	*	*	*	*
4c\	2.cc/	4r	p	1r	.	.	1r	.	.	1r	.	.
4c\	.	4e\	.	.	.	.	.	.	.	.	.	.
4d\	.	4f\	.	.	.	.	.	.	.	.	.	.
4e\	4cc/	4g\	.	.	.	.	.	.	.	.	.	.
=3	=3	=3	=3	=3	=3	=3	=3	=3	=3	=3	=3	=3
*	*	*	*above	*	*	*	*	*	*	*	*	*
4B-\	4dd/	1f	<	1r	.	.	1r	.	.	1r	.	.
4c\	4ee/	.	.	.	.	.	.	.	.	.	.	.
4d\	4ff/	.	.	.	.	.	.	.	.	.	.	.
4B-\	4dd/	.	.	.	.	.	.	.	.	.	.	.
=4	=4	=4	=4	=4	=4	=4	=4	=4	=4	=4	=4	=4
!	!	!	!LO:DY:a	!	!	!	!	!	!	!	!	!
4F\ 4f	4a/	4a\	[ >	1r	.	.	1r	.	.	1r	.	.
4D\ 4d	4bn/	8g\L	]	.	.	.	.	.	.	.	.	.
.	.	8f\J	.	.	.	.	.	.	.	.	.	.
2C\ 2c	2cc/	2e\	.	.	.	.	.	.	.	.	.	.
!LO:LB:g=original	!LO:LB:g=original	!LO:LB:g=original	!	!LO:LB:g=original	!	!	!LO:LB:g=original	!	!	!LO:LB:g=original	!	!
*	*v	*v	*	*	*	*	*	*	*	*	*	*
=5	=5	=5	=5	=5	=5	=5	=5	=5	=5	=5	=5
!	!	!	!	!	!LO:DY:a	!	!	!	!LO:TX:a:t=1ve. STROPHE.	!	!
2FF/ 2F	4f/	f	4f/	Mè-	f	1r	.	.	4f/	Mè-	.
.	4f/	.	4f/	-re	.	.	.	.	4f/	-re	.
4FF/ 4F	4f/ 4a	.	4f/	du	.	.	.	.	4a/	du	.
4DD/ 4D	4d/ 4f 4b-X	.	4d/	Sau-	.	.	.	.	4b-/	Sau-	.
=6	=6	=6	=6	=6	=6	=6	=6	=6	=6	=6	=6
*	*^	*	*	*	*	*	*	*	*	*	*
*	*	*^	*	*	*	*	*	*	*	*	*	*
!	!	!	!	!	!	!	!	!	!	!LO:DY:a	!	!	!
4CC/ 4C	2e/ 2cc	2ryy	2ryy	.	2c/	-veur	.	4e/	Mè-	f	2cc\	-veur	.
4C/	.	.	.	.	.	.	.	4c/	-re	.	.	.	.
4D/	2cc/	2c\	4f/	.	2r	.	.	4d/	du	.	2r	.	.
4E/	.	.	4g/	.	.	.	.	4e/	Sau-	.	.	.	.
*	*v	*v	*v	*	*	*	*	*	*	*	*	*	*
=7	=7	=7	=7	=7	=7	=7	=7	=7	=7	=7	=7
*^	*	*	*	*	*	*	*	*	*	*	*
1F	4BB-\	4d/ 4dd	.	4B-/	o	.	2.f/	-veur	.	4dd\	o	.
.	4C\	4e/ 4ee	.	4c/	fleur	.	.	.	.	4ee\	fleur	.
.	4D\	4f/ 4ff	.	4d/	im-	.	.	.	.	4ff\	im-	.
.	4BB-\	4d/ 4dd	.	4B-/	-mor-	.	4f/	si	.	4dd\	-mor-	.
*v	*v	*	*	*	*	*	*	*	*	*	*	*
=8	=8	=8	=8	=8	=8	=8	=8	=8	=8	=8	=8
*	*^	*	*	*	*	*	*	*	*	*	*
4FF/ 4F	4a/	4ryy	.	(4f/	-tel-	.	4f/	don-	.	(4a\	-tel-	.
4D\ 4G	4bn/	8g\L	.	4d/)	.	.	(8g/L	.	.	4bn\)	.	.
.	.	8f\J	.	.	.	.	8f/J)	.	.	.	.	.
4C\ 4G	4cc/	4e\	.	2c/	-le	.	2e/	-ce	.	2cc\	-le	.
!	!	!	!	!LO:LB:g=original	!	!	!LO:LB:g=original	!	!	!LO:LB:g=original	!	!
4r	4cc\	4ryy	.	.	.	.	.	.	.	.	.	.
!LO:LB:g=original	!LO:LB:g=original	!LO:LB:g=original	!	!	!	!	!	!	!	!	!	!
*	*v	*v	*	*	*	*	*	*	*	*	*	*
=9	=9	=9	=9	=9	=9	=9	=9	=9	=9	=9	=9
!	!	!	!	!	!LO:DY:a	!	!	!	!	!	!LO:DY:a
2DD/ 2C	(4c/ 4b-X	>	4g/	Si	p	2r	.	.	4b-X/	Si	p
.	4e/ 4g	]	4e/	dou-	.	.	.	.	4g/	dou-	.
!	!	!	!	!	!	!	!	!LO:DY:a	!	!	!
2C\ 2c	4f/ 4a	.	4f/	-ce et	.	4f/	et	p	4a/	-ce et	.
.	4g/ 4b-	.	4g/	si	.	4e/	si	.	4b-/	si	.
=10	=10	=10	=10	=10	=10	=10	=10	=10	=10	=10	=10
4F\	4f/) 4a	.	(4f/	bel-	.	(4f/	bel-	.	(4a/	bel-	.
4C/	4e/ 4g	.	4c/)	.	.	4e/)	.	.	4g/)	.	.
4FF/	(4f/	.	2f/	-le	.	2f/	-le	.	2f/	-le	.
4r	8e/L	.	.	.	.	.	.	.	.	.	.
.	8d/J)	.	.	.	.	.	.	.	.	.	.
=11	=11	=11	=11	=11	=11	=11	=11	=11	=11	=11	=11
2CC/ 2C	4c^/ 4e	.	4c/	si	.	4e/	si	.	4e/	si	.
.	4d^/ 4f	.	4c/	chère	.	4d/	chère	.	4f/	chère	.
4C\ 4c	4e^/ 4g	.	4c/	au	.	4e/	au	.	4g/	au	.
4C\ 4c	4f^/ 4a	.	4c/	sei-	.	4f/	sei-	.	4a/	sei-	.
=12	=12	=12	=12	=12	=12	=12	=12	=12	=12	=12	=12
2C^\ 2c	2e^>/ 2g	.	2.c^>/	-gneur	.	2.e^>/	-gneur	.	2.g^>/	-gneur	.
2CC^>/ 2C	2c^>/	.	.	.	.	.	.	.	.	.	.
.	.	.	4r	.	.	4r	.	.	4r	.	.
!LO:LB:g=original	!LO:LB:g=original	!	!LO:LB:g=original	!	!	!LO:LB:g=original	!	!	!LO:LB:g=original	!	!
=13	=13	=13	=13	=13	=13	=13	=13	=13	=13	=13	=13
!	!	!LO:DY:a	!	!	!LO:DY:a	!	!	!	!	!	!LO:DY:a
4FF/	4A/ 4f	f <	4f/	par-	<	4f/	par-	.	4f/	par-	f
!	!	!	!	!	!	!	!	!	!	!	!LO:DY:a
4C/	4e/ 4g	.	4e/	-fum	.	4e/	-fum	<	4g/	-fum	<
4F\	4f/ 4a	.	4f/	de	.	4f/	de	.	4a/	de	.
4D/	4f/	[[	4d/	mon	[[	4f/	mon	.	4f/	mon	.
=14	=14	=14	=14	=14	=14	=14	=14	=14	=14	=14	=14
4C/	4e/ 4cc	.	2c/	â-	.	2e/	â-	.	(4cc\	â-	.
4C/	4e/ 4dd	.	.	.	.	.	.	.	4dd\)	.	[
4C/	2e/ [2cc	.	2c/	-me	.	2e/	-me	[	2cc\	-me	.
4BB-/	.	.	.	.	.	.	.	.	.	.	.
=15	=15	=15	=15	=15	=15	=15	=15	=15	=15	=15	=15
!	!	!	!	!	!LO:DY:a	!	!	!LO:DY:a	!	!	!LO:DY:a
*	*	*below	*	*	*	*	*	*	*	*	*
4AA/	4f/ 4cc]	<	4f/	ra-	<	4f/	ra-	<	4f/	ra-	<
4C/	4e/ 4g	.	4c/	-ni-	.	4e/	-ni-	.	4g/	-ni-	.
4F\	4f/ 4a	.	4c/	-me	.	4f/	-me	.	4a/	-me	.
4BB-^>/	4d^/ 4f 4b-	[[	4d/	sa	[[	4f/	sa	[[	4b-/	sa	[[
=16	=16	=16	=16	=16	=16	=16	=16	=16	=16	=16	=16
!	!	!	!	!	!LO:DY:a	!	!	!LO:DY:a	!	!	!LO:DY:a
4CC/ 4C	4c/ 4f 4a	>	2c/	flam-	>	(4f/	flam-	>	(4a/	flam-	>
4CC/ 4C	4B-/ 4e 4g	.	.	.	.	4e/)	.	.	4g/)	.	.
2FF/ 2F	2A/ 2f	]]	2f/	-me	]]	2f/	-me	]]	2f/	-me	]]
!LO:LB:g=original	!LO:LB:g=original	!	!LO:LB:g=original	!	!	!LO:LB:g=original	!	!	!LO:LB:g=original	!	!
=17||	=17||	=17||	=17||	=17||	=17||	=17||	=17||	=17||	=17||	=17||	=17||
!	!	!	!	!	!LO:DY:a	!	!	!	!LO:TX:a:t=2o. STROPHE.	!	!LO:DY:a
2F\	(8f/L	p	4f/	E-	p	1r	.	.	4f/	E-	p
.	8c/	.	.	.	.	.	.	.	.	.	.
.	8f/	.	4f/	-toi-	.	.	.	.	4f/	-toi-	.
.	8g/J	.	.	.	.	.	.	.	.	.	.
4F\	8a/L	.	4f/	-le	.	.	.	.	4a/	-le	.
.	8f/	.	.	.	.	.	.	.	.	.	.
4D\	8b-/	.	4d/	des	.	.	.	.	4b-/	des	.
.	8f/J)	.	.	.	.	.	.	.	.	.	.
=18	=18	=18	=18	=18	=18	=18	=18	=18	=18	=18	=18
2C/	(8cc/L	.	2c/	mers	.	4e/	e-	.	2cc\	mers	.
.	8e/	.	.	.	.	.	.	.	.	.	.
.	8g/	.	.	.	.	4c/	-toi-	.	.	.	.
.	8cc/J	.	.	.	.	.	.	.	.	.	.
4D\	8b-/L	.	2r	.	.	4d/	-le	.	2r	.	.
.	8f/	.	.	.	.	.	.	.	.	.	.
4E\	8cc/	.	.	.	.	4e/	des	.	.	.	.
.	8g/J)	.	.	.	.	.	.	.	.	.	.
=19	=19	=19	=19	=19	=19	=19	=19	=19	=19	=19	=19
!	!	!	!	!	!LO:DY:a	!	!	!LO:DY:a	!	!	!LO:DY:a
2BB-/	(8dd/L	<	4B-/	lors-	<	1f	mers	<	4dd\	lors-	<
.	8d/	.	.	.	.	.	.	.	.	.	.
.	8e/	.	4c/	-que	.	.	.	.	4ee\	-que	.
.	8d/J	.	.	.	.	.	.	.	.	.	.
4D\	8f/L	.	4d/	ma	.	.	.	.	4ff\	ma	.
.	8d/	.	.	.	.	.	.	.	.	.	.
4BB-/	8dd/	.	4B-/	na-	.	.	.	.	4dd\	na-	.
.	8d/J)	[[	.	.	.	.	.	.	.	.	.
=20	=20	=20	=20	=20	=20	=20	=20	=20	=20	=20	=20
4FF/ 4F	(8a/L 8cc	.	2f/	-cel-	.	4f/	lors-	.	(4a/	-cel-	.
.	8f/	.	.	.	.	.	.	.	.	.	.
4FF/ 4F	8g/ 8bn	.	.	.	.	4g/	-que	.	4bn/)	.	.
.	8f/J	.	.	.	.	.	.	.	.	.	.
4FF/ 4F	8cc/L	.	2f/	-le	.	4a/	ma	.	2cc\	-le	.
.	8a/	.	.	.	.	.	.	.	.	.	.
4r	8f/	.	.	.	.	4f/	na-	.	.	.	.
!LO:LB:g=original	!	!	!LO:LB:g=original	!	!	!LO:LB:g=original	!	!	!LO:LB:g=original	!	!
.	8c/J)	.	.	.	.	.	.	.	.	.	.
!	!LO:LB:g=original	!	!	!	!	!	!	!	!	!	!
=21	=21	=21	=21	=21	=21	=21	=21	=21	=21	=21	=21
4C/	(8g/L 8b-X	p	4g/	sur	.	2g/	-cel-	.	4b-/	sur	.
.	8c/	.	.	.	.	.	.	.	.	.	.
4r	8e/ 8g	.	4e/	les	.	.	.	.	4g/	les	.
.	8c/J	.	.	.	.	.	.	.	.	.	.
!	!	!	!	!	!	!	!	!LO:DY:a	!	!	!
4CC/	8f/L 8a	.	4f/	flots	.	4f/	-le	p	4a/	flots	.
.	8c/	.	.	.	.	.	.	.	.	.	.
4r	8g/ 8b-	.	4g/	chan-	.	4r	.	.	4b-/	chan-	.
.	8c/J	.	.	.	.	.	.	.	.	.	.
=22	=22	=22	=22	=22	=22	=22	=22	=22	=22	=22	=22
4FF/	8f/L 8a	.	(4f/	-cel-	.	1r	.	.	(4a/	-cel-	.
.	8c/	.	.	.	.	.	.	.	.	.	.
4r	8e/ 8g	.	4c/)	.	.	.	.	.	4g/)	.	.
.	8c/J	.	.	.	.	.	.	.	.	.	.
4F\	8f/L	.	2f/	-le	.	.	.	.	2f/	-le	.
.	8c/	.	.	.	.	.	.	.	.	.	.
4r	8f/ 8a	.	.	.	.	.	.	.	.	.	.
.	8c/J)	.	.	.	.	.	.	.	.	.	.
=23	=23	=23	=23	=23	=23	=23	=23	=23	=23	=23	=23
!	!	!	!	!	!LO:DY:a	!	!	!LO:DY:a	!	!	!LO:DY:a
4C/	(8e/L	.	4c/	aux	<	4e/	aux	<	4e/	aux	<
.	8c/	.	.	.	.	.	.	.	.	.	.
4r	8d/ 8f	.	4c/	feux	.	4d/	feux	.	4f/	feux	.
.	8c/J	.	.	.	.	.	.	.	.	.	.
4C/	8e/L 8g	.	4c/	des	.	4e/	des	.	4g/	des	.
.	8c/	.	.	.	.	.	.	.	.	.	.
4C/	8f/ 8a	.	4c/	é-	[[	4f/	é-	[[	4a/	é-	[[
.	8c/J	.	.	.	.	.	.	.	.	.	.
=24	=24	=24	=24	=24	=24	=24	=24	=24	=24	=24	=24
[2C^/	8e/L 8g	.	2.c^>/	-clairs	.	2.e^>/	-clairs	.	2.g^>/	-clairs	.
.	8f#X/	.	.	.	.	.	.	.	.	.	.
.	8g/	.	.	.	.	.	.	.	.	.	.
.	8e/J	.	.	.	.	.	.	.	.	.	.
8C/L]	2c^>/)	.	.	.	.	.	.	.	.	.	.
!	!LO:LB:g=original	!	!	!	!	!	!	!	!	!	!
8BBn/	.	.	.	.	.	.	.	.	.	.	.
8C/	.	.	4r	.	.	4r	.	.	4r	.	.
!	!	!	!LO:LB:g=original	!	!	!LO:LB:g=original	!	!	!LO:LB:g=original	!	!
8BB-X/J	.	.	.	.	.	.	.	.	.	.	.
!LO:LB:g=original	!	!	!	!	!	!	!	!	!	!	!
=25	=25	=25	=25	=25	=25	=25	=25	=25	=25	=25	=25
!	!	!	!	!	!LO:DY:a	!	!	!LO:DY:a	!	!	!LO:DY:a
4AA/	4f/	.	4f/	sois	<	4f/	sois	<	4f/	sois	<
4C/	4c/ 4e 4g	.	4e/	l'an-	.	4e/	l'an-	.	4g/	l'an-	.
4FF/ 4F	4c/ 4f 4a	.	4f/	-cre	.	4f/	-cre	.	4a/	-cre	.
4D/	4f/ 4b-	.	4d/	bé-	[[	4f/	bé-	[[	4f/	bé-	[[
=26	=26	=26	=26	=26	=26	=26	=26	=26	=26	=26	=26
2C/	(8cc/L	<	2c/	-ni-	.	4e/	-ni-	.	(4cc\	-ni-	.
.	8e/	.	.	.	.	.	.	.	.	.	.
.	8f/	.	.	.	.	4f/	.	.	4dd\)	.	.
.	8bn/J	[	.	.	.	.	.	.	.	.	.
4CC/	8cc\L	>	2c/	-e	.	2e/	-e	.	2cc\	-e	.
.	8dd\	.	.	.	.	.	.	.	.	.	.
4r	8cc\	.	.	.	.	.	.	.	.	.	.
.	8b-X\J)	]	.	.	.	.	.	.	.	.	.
=27	=27	=27	=27	=27	=27	=27	=27	=27	=27	=27	=27
!	!LO:TX:b:t=élargissant.	!	!	!	!LO:DY:a	!	!	!LO:DY:a	!LO:TX:a:t=elargissant.	!	!LO:DY:a
4FF/ 4F	4f/ 4a	f	4f/	ou	f	4f/	ou	f	4f/	ou	f
4E\	8r	.	4c/	mon	.	4e/	mon	.	4g/	mon	.
.	8c/ 8g	.	.	.	.	.	.	.	.	.	.
4F\	8r	.	4c/	coeur	.	4f/	coeur	.	4a/	coeur	.
.	8c/ 8f 8a	.	.	.	.	.	.	.	.	.	.
4D\	8r	.	4d/	s'ap-	.	4f/	s'ap-	.	4b-/	s'ap-	.
.	8f/ 8b-	.	.	.	.	.	.	.	.	.	.
=28	=28	=28	=28	=28	=28	=28	=28	=28	=28	=28	=28
*	*^	*	*	*	*	*	*	*	*	*	*
!	!	!	!	!	!	!LO:DY:a	!	!	!LO:DY:a	!	!	!LO:DY:a
4CC/ 4C	4c/ 4f 4a	4ryy	.	(4c/	-pui-	<	(4f/	-pui-	<	(4a/	-pui-	<
!	!	!	!	!	!	!LO:DY:a	!	!	!LO:DY:a	!	!	!LO:DY:a
4CC/ 4C	4e/ 4g	8c\L	.	4B-/)	.	[ >	4e/)	.	[ >	4g/)	.	[ >
.	.	8B-\J	.	.	.	.	.	.	.	.	.	.
2FFF/ 2FF	2f/	2A\	.	2f/	-e	]	2f/	-e	]	2f/	-e	]
*	*v	*v	*	*	*	*	*	*	*	*	*	*
=29	=29	=29	=29	=29	=29	=29	=29	=29	=29	=29	=29
!	!LO:TX:b:t=a tempo.	!	!	!	!	!	!	!	!	!	!
2FF/ 2F	4f/	f	1r	.	.	1r	.	.	1r	.	.
!	!	!	!LO:LB:g=original	!	!	!LO:LB:g=original	!	!	!LO:LB:g=original	!	!
.	4f/	.	.	.	.	.	.	.	.	.	.
4FF/ 4F	4a/	.	.	.	.	.	.	.	.	.	.
4DD/ 4D	4f/ 4bn	.	.	.	.	.	.	.	.	.	.
!LO:LB:g=original	!LO:LB:g=original	!	!	!	!	!	!	!	!	!	!
=30	=30	=30	=30	=30	=30	=30	=30	=30	=30	=30	=30
*	*^	*	*	*	*	*	*	*	*	*	*
4CC/ 4C	2cc/	4e\	.	1r	.	.	1r	.	.	1r	.	.
4DD/ 4D	.	4f\	.	.	.	.	.	.	.	.	.	.
4EE/ 4E	2cc/	4g\	.	.	.	.	.	.	.	.	.	.
4CC/ 4C	.	4e\	.	.	.	.	.	.	.	.	.	.
=31	=31	=31	=31	=31	=31	=31	=31	=31	=31	=31	=31	=31
4BBB-/ 4BB-	4dd\	4f\	.	1r	.	.	1r	.	.	1r	.	.
4AAA/ 4AA	4cc\	4f\	.	.	.	.	.	.	.	.	.	.
4BBB-/ 4BB-	4dd\	4f\	<	.	.	.	.	.	.	.	.	.
4GGG/ 4GG	4ee/	8cc\L	.	.	.	.	.	.	.	.	.	.
.	.	8b-X\J	.	.	.	.	.	.	.	.	.	.
*	*v	*v	*	*	*	*	*	*	*	*	*	*
=32	=32	=32	=32	=32	=32	=32	=32	=32	=32	=32	=32
2FFF:/ 2FF: 2F:	2f\ 2a 2ff	[ sf >	1r	.	.	1r	.	.	1r	.	.
2r	2r	]	.	.	.	.	.	.	.	.	.
=33||	=33||	=33||	=33||	=33||	=33||	=33||	=33||	=33||	=33||	=33||	=33||
!	!	!	!	!	!LO:DY:a	!	!	!LO:DY:a	!LO:TX:a:t=3me. STROPHE	!	!LO:DY:a
4FF/	8f/	mf	4f/	Dé-	mf	4f/	Dé-	mf	4f/	Dé-	mf
.	4ff\	.	.	.	.	.	.	.	.	.	.
4AA/	.	.	4f/	-li-	.	4f/	-li-	.	4f/	-li-	.
.	4cc\	.	.	.	.	.	.	.	.	.	.
4C/	.	.	4f/	-ces	.	4f/	-ces	.	4a/	-ces	.
.	4a/	.	.	.	.	.	.	.	.	.	.
4F\	.	.	4d/	du	.	4f/	du	.	4b-/	du	.
.	8f/	.	.	.	.	.	.	.	.	.	.
=34	=34	=34	=34	=34	=34	=34	=34	=34	=34	=34	=34
4C\ 4G	8e/L	.	2.c^>/	coeur	.	2.e^>/	coeur	.	2.cc^\	coeur	.
.	8cc/	.	.	.	.	.	.	.	.	.	.
4r	8g/	.	.	.	.	.	.	.	.	.	.
.	8e/J	.	.	.	.	.	.	.	.	.	.
2r	8c/L	.	.	.	.	.	.	.	.	.	.
.	8e/	.	.	.	.	.	.	.	.	.	.
.	8g/	.	4r	.	.	4r	.	.	4r	.	.
!LO:LB:g=original	!	!	!LO:LB:g=original	!	!	!LO:LB:g=original	!	!	!LO:LB:g=original	!	!
.	8cc/J	.	.	.	.	.	.	.	.	.	.
!	!LO:LB:g=original	!	!	!	!	!	!	!	!	!	!
=35	=35	=35	=35	=35	=35	=35	=35	=35	=35	=35	=35
!	!	!	!	!	!LO:DY:a	!	!	!LO:DY:a	!	!	!LO:DY:a
4BB-/	8d/	sf	4B-/	qui	<	4f/	qui	<	4dd\	qui	<
.	4dd/	.	.	.	.	.	.	.	.	.	.
4D\	.	.	4c/	t'aime	.	4f/	t'aime	.	4ee\	t'aime	.
.	4b-/	.	.	.	.	.	.	.	.	.	.
4F\	.	.	4d/	et	.	4f/	et	.	4ff\	et	.
.	4f/	.	.	.	.	.	.	.	.	.	.
4B-\	.	.	4B-/	te	[[	4f/	te	[[	4dd\	te	[[
.	8d/	.	.	.	.	.	.	.	.	.	.
=36	=36	=36	=36	=36	=36	=36	=36	=36	=36	=36	=36
*	*^	*	*	*	*	*	*	*	*	*	*
!	!	!	!	!	!	!LO:DY:a	!	!	!	!	!	!LO:DY:a
4F\	8c/L	4ryy	<	(4f/	pri-	>	(4f/	pri-	.	(4a\	pri-	>
.	8a/J	.	.	.	.	.	.	.	.	.	.	.
4D\	4bn/	8g\L	.	4d/)	.	.	8g/L	.	.	4bn\)	.	.
.	.	8f\J	.	.	.	.	8f/J)	.	.	.	.	.
4C\	2ryy	8e\L	[ >	2c/	-e	]	2e/	-e	.	2cc\	-e	]
.	.	8cc\	.	.	.	.	.	.	.	.	.	.
4r	.	8dd\	.	.	.	.	.	.	.	.	.	.
.	.	8cc\J	.	.	.	.	.	.	.	.	.	.
*	*v	*v	*	*	*	*	*	*	*	*	*	*
=37	=37	=37	=37	=37	=37	=37	=37	=37	=37	=37	=37
!	!	!	!	!	!LO:DY:a	!	!	!LO:DY:a	!	!	!LO:DY:a
4CC/ 4C	4b-X/	] p	4e/	Sou-	p	4g/	Sou-	p	4b-X/	Sou-	p
4r	4c/ 4cc	.	4c/	-viens	.	4e/	-viens	.	4g/	-viens	.
4C/	4r	.	4c/	toi	.	4f/	toi	.	4a/	toi	.
4r	4c/ 4cc	.	4c/	Ma-	.	4g/	Ma-	.	4b-/	Ma-	.
=38	=38	=38	=38	=38	=38	=38	=38	=38	=38	=38	=38
4FF/	4r	.	2f/	-ri-	.	(4f/	-ri-	.	(4a/	-ri-	.
4r	4c/ 4cc	.	.	.	.	4e/)	.	.	4g/)	.	.
4F\ 4A	4r	.	2f/	-e	.	2f/	-e	.	2f/	-e	.
4r	4c/ 4cc	.	.	.	.	.	.	.	.	.	.
=39	=39	=39	=39	=39	=39	=39	=39	=39	=39	=39	=39
!	!	!	!	!	!LO:DY:a	!	!	!LO:DY:a	!	!	!LO:DY:a
4CC/ 4C	4r	.	4c/	Du	<	4e/	Du	<	4e/	Du	<
4r	4c/ 4cc	.	4c/	pau-	.	4d/	pau-	.	4f/	pau-	.
4C\ 4G 4B-	4r	.	4c/	-vre	.	4e/	-vre	.	4g/	-vre	.
4F\ 4A	4c/ 4cc	.	4c/	pé-	[[	4f/	pé-	[[	4a/	pé-	[[
!LO:LB:g=original	!LO:LB:g=original	!	!LO:LB:g=original	!	!	!LO:LB:g=original	!	!	!LO:LB:g=original	!	!
=40	=40	=40	=40	=40	=40	=40	=40	=40	=40	=40	=40
4CC/ 4C	4r	.	2.c^>/	-cheur	.	2.e^>/	-cheur	.	2.g^>/	-cheur	.
4r	8.c/L 8.cc	.	.	.	.	.	.	.	.	.	.
.	16c/Jk 16cc	.	.	.	.	.	.	.	.	.	.
4r	4c/ 4cc	.	.	.	.	.	.	.	.	.	.
4BB-^\ 4B-	4c/ 4cc	.	4r	.	.	4r	.	.	4r	.	.
=41	=41	=41	=41	=41	=41	=41	=41	=41	=41	=41	=41
!	!	!	!	!	!LO:DY:a	!	!	!LO:DY:a	!	!	!
4AA^\ 4A	4c/ 4f 4cc	mf	4f/	que	mf	4f/	que	mf	4f/	que	mf
4E^\	4c/ 4g 4cc	.	4c/	ta	.	4e/	ta	.	4g/	ta	.
!	!	!	!	!	!LO:DY:a	!	!	!LO:DY:a	!	!	!LO:DY:a
4F^\	4c/ 4a 4cc	.	4f/	voix	<	4f/	voix	<	4a/	voix	<
4D^\	4f\ 4ff	.	4f/	fi-	.	4f/	fi-	.	4f/	fi-	.
=42	=42	=42	=42	=42	=42	=42	=42	=42	=42	=42	=42
4C\ 4c	4g\ 4cc 4ee	<	(4e/	-dè-	.	(4g/	-dè-	.	(4cc\	-dè-	.
4C\ 4c	4a-X\ 4dd 4ff	.	4f/)	.	[	4f/)	.	[	4dd\)	.	[
2C\ 2c	2g\ 2cc 2ee	[[	2e^>/	-le	.	2e^>/	-le	.	2cc^\	-le	.
=43	=43	=43	=43	=43	=43	=43	=43	=43	=43	=43	=43
!	!	!	!	!	!LO:DY:a	!	!	!LO:DY:a	!	!	!LO:DY:a
4FF/ 4F	4an\ 4cc 4ff	f	4f/	Au-	f	4f/	Au-	f	4f/	Au-	f
4C/	4b-\ 4cc 4ee	.	4c/	-jourd'	.	4e/	-jourd'	.	4g/	-uor-	.
!	!LO:TX:b:t=rall.	!	!	!	!	!	!	!	!	!	!
4FF/ 4F	4a\ 4cc 4ff	.	4c/	hui	.	4f/	hui	.	4a/	-d'hui	.
!	!	!	!LO:TX:a:t=rall.	!	!	!LO:TX:a:t=rall.	!	!	!LO:TX:a:t=rall.	!	!
4DD/ 4D	4f\ 4b- 4ff	.	4d/	t'ap-	.	4f/	t'ap-	.	4b-/	t'ap-	.
=44	=44	=44	=44	=44	=44	=44	=44	=44	=44	=44	=44
*	*^	*	*	*	*	*	*	*	*	*	*
4CC/ 4C	4f\ 4a 4ff	4ryy	<	([4c/	-pel-	.	(4f/	-pel-	.	(4a/	-pel-	.
4CC/ 4C	4g\ 4ee	8cc\L	.	8c/L]	.	.	4e/)	.	.	4g/)	.	.
.	.	8b-\J	.	8B-/J)	.	.	.	.	.	.	.	.
2FFF;/ 2FF	2f;<\ 2a 2ff	2ryy	[ sf	2A;/	-le	.	2f;/	-le	.	2f;/	-le	.
*	*v	*v	*	*	*	*	*	*	*	*	*	*
==	==	==	==	==	==	==	==	==	==	==	==
*-	*-	*-	*-	*-	*-	*-	*-	*-	*-	*-	*-
!!!RDF**kern: > = above
!!!RDF**kern: < = below
!!!system-decoration: [(s1,s2,s3)][(s4,s5)]
!!!ENC: Andrzej Gręziak
!!!END: 2022-08-06
!!!ENC: Julita Ruszuk
!!!END: 2022-09-02!!!YEC: Copyright 2022 Narodowy Instytut Fryderyka Chopina (https://polishscores.org)
!!!YEM: Licence CC BY 4.0 (https://creativecommons.org/licenses/by/4.0)
